icons/svg/message-gray.svg

<?xml version="1.0" encoding="UTF-8"?>
<svg width="23px" height="16px" viewBox="0 0 23 16" version="1.1" xmlns="http://www.w3.org/2000/svg" xmlns:xlink="http://www.w3.org/1999/xlink">
    <!-- Generator: Sketch 57.1 (83088) - https://sketch.com -->
    <title>编组</title>
    <desc>Created with Sketch.</desc>
    <g id="页面1" stroke="none" stroke-width="1" fill="none" fill-rule="evenodd">
        <g id="消息提醒_关注" transform="translate(-597.000000, -250.000000)" fill="#B2B2B2" fill-rule="nonzero">
            <g id="编组" transform="translate(597.000000, 250.000000)">
                <path d="M20.896942,0.01953125 L1.91553571,0.01953125 C0.863392857,0.01953125 0.00736607143,0.875580357 0.00736607143,1.92772321 L0.00736607143,13.5633259 C0.00736607143,14.6190402 0.863415179,15.4714955 1.91553571,15.4714955 L20.896942,15.4714955 C21.9526563,15.4714955 22.8051116,14.6190402 22.8051116,13.5633259 L22.8051116,1.92772321 C22.8051116,0.875558036 21.9526563,0.01953125 20.896942,0.01953125 L20.896942,0.01953125 L20.896942,0.01953125 Z M20.4413616,1.38613839 L12.8719866,8.09587054 C12.2108259,8.6853125 11.721875,8.97698661 11.4062054,8.97698661 C11.0905357,8.97698661 10.6015848,8.68526786 9.94160714,8.09587054 L2.37102679,1.38613839 L20.4413616,1.38613839 Z M1.42772321,13.1388839 L1.42772321,2.62598214 L7.33756696,7.81015625 L1.42772321,13.1388839 Z M2.42004464,14.10375 L8.35504464,8.83712054 L9.32709821,9.68957589 C9.89140625,10.1833705 10.5884152,10.4367857 11.406183,10.4367857 C12.2287723,10.4367857 12.9209821,10.1833482 13.4889286,9.68957589 L14.4597545,8.83712054 L20.3934821,14.10375 L2.42004464,14.10375 L2.42004464,14.10375 Z M21.3859375,13.1388839 L15.4760491,7.81011161 L21.3859375,2.6259375 L21.3859375,13.1388839 L21.3859375,13.1388839 L21.3859375,13.1388839 Z" id="形状"></path>
            </g>
        </g>
    </g>
</svg>

<svg width="23" height="16" xmlns="http://www.w3.org/2000/svg"><path d="M20.897.02H1.916A1.91 1.91 0 00.007 1.928v11.635c0 1.056.856 1.908 1.909 1.908h18.98a1.906 1.906 0 001.91-1.908V1.928A1.908 1.908 0 0020.895.02zm-.456 1.366l-7.569 6.71c-.661.59-1.15.881-1.466.881-.315 0-.804-.292-1.464-.881L2.37 1.386h18.07zM1.428 13.14V2.626l5.91 5.184-5.91 5.329zm.992.965l5.935-5.267.972.853c.564.493 1.261.747 2.08.747.822 0 1.514-.254 2.082-.747l.97-.853 5.934 5.267H2.42zm18.966-.965l-5.91-5.329 5.91-5.184v10.513z"/></svg>
